!!!OTL: 1338. Die Reveille (Wecktrommel).
!!!ODT: 1817
!!!ARE: Europa, Mitteleuropa, Deutschland
!!!SCT: E1338
!!!TXL: @@DE
!!!YEM: Copyright 1995, estate of Helmut Schaffrath.
**kern	**text
*ICvox	*
*M4/4	*
*met(c)	*
*k[b-]	*
*F:	*
!LO:TX:a:t=Marschmäßig.	!
!LO:TX:a:t=Aeltere Mel. 1817.	!
{8fL	Des
8aJ	.
=1	=1
4cc	Morgens
8cc	ʒwi-
8cc	-ſchen
4a	drein
4f	und
=2	=2
4dd	vie-
4cc	-ren,
4r}	.
{8fL	da
8aJ	.
=3	=3
4cc	müſſen
4cc	wir_Sol-
8ddL	-da-
8ccJ	.
8b-/	-ten
8a	mar-
=4	=4
4a	-ſchie-
4g	-ren
4r}	.
{8fL	die
8aJ	.
=5	=5
4.cc	Gäß-
8a	-lein
8b-L	auf
8aJ	.
8b-L	und
8ccJ	.
=6	=6
4a	ab,
4r	.
4r}	.
{8ffL	mein
8ddJ	.
=7	=7
4.cc	Schä-
8a	-tʒel
8ccL	ſieht
8b-J	.
8aL	her-
8gJ	.
=8	=8
4f	-ab.
4r	.
4r}	.
{8f	Tra-
8a	-li-
=9	=9
4cc	-la
4cc	la
4cc	la,
8f	tra-
8a	-li
=10	=10
4cc	la
4cc	la
4cc}	la!
{8ffL	mein
8ddJ	.
=11	=11
4.cc	Schä-
8a	-tʒel
8ccL	ſieht
8b-J	.
8aL	her-
8gJ	.
=12	=12
4f	-ab.
4r	.
4r}	.
==	==
!!!AGN: Staende -, Soldaten -, Kriegs - Lied
!!!ONB: ESAC (Essen Associative Code) Database: ERK3
!!!AMT: simple quadruple
!!!AIN: vox
!!!EED: Helmut Schaffrath
!!!EEV: 1.0
!!!GTL: Staendelieder (Berufslieder). 1. Soldaten- und Kriegslieder. Soldatenlieder seit dem 30jaehr. Kriege.
!!!URL-scan: https://rosdok.uni-rostock.de/mcrviewer/recordIdentifier/rosdok_ppn745177999/iview2/phys_0221.iview2?x=-128.77276441889285&y=973.984140472603&scale=0.5870222003877487&rotation=0&layout=singlePageLayout
!!!ENC: Anna Maria Matuszewska
!!!EEV: 2024/12/27
*-	*-
